icons/svg/seamark/restriction_discharging.svg

<?xml version="1.0" encoding="UTF-8" standalone="no"?>
<svg
   xmlns:dc="http://purl.org/dc/elements/1.1/"
   xmlns:cc="http://creativecommons.org/ns#"
   xmlns:rdf="http://www.w3.org/1999/02/22-rdf-syntax-ns#"
   xmlns:svg="http://www.w3.org/2000/svg"
   xmlns="http://www.w3.org/2000/svg"
   xmlns:sodipodi="http://sodipodi.sourceforge.net/DTD/sodipodi-0.dtd"
   xmlns:inkscape="http://www.inkscape.org/namespaces/inkscape"
   width="320"
   height="320"
   id="svg2"
   version="1.1"
   inkscape:version="0.48.4 r9939"
   sodipodi:docname="restriction_discharging.svg">
  <defs
     id="defs13">
    <marker
       inkscape:stockid="TriangleOutS"
       orient="auto"
       refY="0.0"
       refX="0.0"
       id="TriangleOutS"
       style="overflow:visible">
      <path
         id="path4025"
         d="M 5.77,0.0 L -2.88,5.0 L -2.88,-5.0 L 5.77,0.0 z "
         style="fill-rule:evenodd;stroke:#000000;stroke-width:1.0pt"
         transform="scale(0.2)" />
    </marker>
    <marker
       inkscape:stockid="Arrow1Send"
       orient="auto"
       refY="0.0"
       refX="0.0"
       id="Arrow1Send"
       style="overflow:visible;">
      <path
         id="path3892"
         d="M 0.0,0.0 L 5.0,-5.0 L -12.5,0.0 L 5.0,5.0 L 0.0,0.0 z "
         style="fill-rule:evenodd;stroke:#000000;stroke-width:1.0pt;"
         transform="scale(0.2) rotate(180) translate(6,0)" />
    </marker>
    <marker
       inkscape:stockid="Arrow1Lend"
       orient="auto"
       refY="0.0"
       refX="0.0"
       id="Arrow1Lend"
       style="overflow:visible;">
      <path
         id="path3880"
         d="M 0.0,0.0 L 5.0,-5.0 L -12.5,0.0 L 5.0,5.0 L 0.0,0.0 z "
         style="fill-rule:evenodd;stroke:#000000;stroke-width:1.0pt;"
         transform="scale(0.8) rotate(180) translate(12.5,0)" />
    </marker>
    <inkscape:path-effect
       effect="gears"
       id="path-effect3774"
       is_visible="true"
       teeth="6"
       phi="-1.2" />
    <inkscape:path-effect
       effect="bend_path"
       id="path-effect3772"
       is_visible="false"
       bendpath="m 95.790098,316.51174 c 144.429032,-206.42506 223.313032,-11.7428 339.548092,0"
       prop_scale="1.19"
       scale_y_rel="false"
       vertical="false"
       bendpath-nodetypes="cc" />
  </defs>
  <sodipodi:namedview
     pagecolor="#ffffff"
     bordercolor="#666666"
     borderopacity="1"
     objecttolerance="10"
     gridtolerance="10"
     guidetolerance="10"
     inkscape:pageopacity="0"
     inkscape:pageshadow="2"
     inkscape:window-width="1920"
     inkscape:window-height="1004"
     id="namedview11"
     showgrid="false"
     inkscape:zoom="0.81379305"
     inkscape:cx="434.70415"
     inkscape:cy="255.67206"
     inkscape:window-x="1680"
     inkscape:window-y="0"
     inkscape:window-maximized="1"
     inkscape:current-layer="svg2"
     inkscape:snap-bbox="true"
     inkscape:object-nodes="true"
     inkscape:snap-midpoints="true"
     inkscape:snap-grids="false"
     inkscape:snap-bbox-edge-midpoints="true"
     showguides="true"
     inkscape:guide-bbox="true">
    <inkscape:grid
       type="xygrid"
       id="grid2990"
       empspacing="5"
       visible="true"
       enabled="true"
       snapvisiblegridlinesonly="true"
       spacingx="10px"
       spacingy="10px"
       dotted="false" />
    <sodipodi:guide
       orientation="1,0"
       position="55.202458,260.58927"
       id="guide3872" />
    <sodipodi:guide
       orientation="1,0"
       position="265.17816,340"
       id="guide3874" />
    <sodipodi:guide
       orientation="0,1"
       position="317.80107,264.96094"
       id="guide3876" />
    <sodipodi:guide
       orientation="0,1"
       position="325.098,54.759006"
       id="guide3878" />
  </sodipodi:namedview>
  <metadata
     id="metadata2975">image/svg+xmlen<rdf:RDF>
  <cc:Work
     rdf:about="">
    <dc:format>image/svg+xml</dc:format>
    <dc:type
       rdf:resource="http://purl.org/dc/dcmitype/StillImage" />
    <dc:title />
  </cc:Work>
</rdf:RDF>
</metadata>
  <path
     style="fill:#000000;fill-opacity:1;stroke:none"
     d="m 79.692931,140.75642 0,66.94492 61.440679,0 c 15.56497,-9.64527 31.12995,-19.39811 46.69492,-36.25001 l -52.53178,0 c -9.23008,-10.06161 -9.12657,-19.02515 -30.72035,-30.54131 z"
     id="path3834"
     inkscape:connector-curvature="0"
     sodipodi:nodetypes="ccccccc" />
  <path
     style="fill:#000000;fill-opacity:1;stroke:#000000;stroke-width:1px;stroke-linecap:butt;stroke-linejoin:miter;stroke-opacity:1"
     d="m 144.17341,229.51479 c -1.16925,1.42908 46.19112,-52.98601 92.62808,-35.68785 l -0.0241,35.70329 z"
     id="path3836"
     inkscape:connector-curvature="0"
     sodipodi:nodetypes="cccc" />
  <path
     style="color:#000000;fill:#000000;fill-opacity:1;fill-rule:nonzero;stroke:none;stroke-width:0;marker:none;visibility:visible;display:inline;overflow:visible;enable-background:accumulate"
     d="m 195.6343,135.92912 0,41.15625 40.5625,0 0,-41.15625 -40.5625,0 z m 9.96875,9.71875 20.625,0 0,21.71875 -20.625,0 0,-21.71875 z"
     id="rect3838"
     inkscape:connector-curvature="0" />
  <g
     id="g2998">
    <path
       style="font-size:medium;font-style:normal;font-variant:normal;font-weight:normal;font-stretch:normal;text-indent:0;text-align:start;text-decoration:none;line-height:normal;letter-spacing:normal;word-spacing:normal;text-transform:none;direction:ltr;block-progression:tb;writing-mode:lr-tb;text-anchor:start;baseline-shift:baseline;color:#000000;fill:#000000;fill-opacity:1;stroke:none;stroke-width:15.19999981;marker:none;visibility:visible;display:inline;overflow:visible;enable-background:accumulate;font-family:Sans;-inkscape-font-specification:Sans"
       d="m 158.34375,79.25 c -5.92264,-0.249162 -11.81015,0.248929 -17.4375,1.46875 -22.50939,4.879283 -42.391411,21.83276 -42.84375,46.3125 l 15.1875,0.28125 c 0.30395,-16.44926 13.40692,-27.932255 30.875,-31.71875 17.46808,-3.786495 35.35401,1.617605 47.76677,18.12043 l 13.4596,-8.47333 C 193.09502,88.945983 176.11166,79.997486 158.34375,79.25 z"
       id="path3871"
       inkscape:connector-curvature="0"
       sodipodi:nodetypes="ssccsccs" />
    <path
       style="fill-rule:evenodd;stroke:#000000;stroke-width:0.19999998pt"
       d="M 212.25346,129.00352 170.66162,118.14243 215.56145,85.331949 z"
       id="path3004"
       inkscape:connector-curvature="0"
       sodipodi:nodetypes="cccc" />
  </g>
</svg>

<svg width="320" height="320" viewBox="0 0 320 320" fill="none" xmlns="http://www.w3.org/2000/svg">
<path d="M79.6929 140.756V207.701H141.134C156.699 198.056 172.264 188.303 187.828 171.451H135.297C126.067 161.389 126.17 152.426 104.576 140.909L79.6929 140.756Z" fill="black"/>
<path d="M144.173 229.515C143.004 230.944 190.364 176.529 236.801 193.827L236.777 229.531L144.173 229.515Z" fill="black" stroke="black"/>
<path d="M195.634 135.93V177.086H236.197V135.93H195.634ZM205.603 145.648H226.228V167.367H205.603V145.648Z" fill="black"/>
<path d="M158.344 79.2499C152.421 79.0008 146.534 79.4989 140.906 80.7187C118.397 85.598 98.5148 102.551 98.0625 127.031L113.25 127.312C113.554 110.863 126.657 99.3802 144.125 95.5937C161.593 91.8072 179.479 97.2113 191.892 113.714L205.351 105.241C193.095 88.9459 176.112 79.9974 158.344 79.2499Z" fill="black"/>
<path fill-rule="evenodd" clip-rule="evenodd" d="M212.253 129.004L170.662 118.143L215.561 85.332L212.253 129.004Z" fill="black" stroke="black" stroke-width="0.2"/>
</svg>
